startshape START

tile {s 1.3 1.3} 

rule START {
 A{x -10 s 0.23 r 40}	
 A{s 0.21 rotate rand(-13.2) flip rand(70,95) x-4}	
}

rule A  {

 SQUARE{ r 4}
 A { y 1.0 size 0.97 rotate 1.5 brightness 0.006 sat 0.3 hue 1.3 }
 A { flip 92 y 0.0 size 0.24 rotate rand(-0.53) brightness 0.01  sat 0.1 hue 1.8 }
 A { flip 120 y 0.0 size 0.2 rotate rand(-0.23) brightness 0.03 sat 0.7 hue 1.90 }


}

